src/lib/packages/icons/src/assets/line/paypal-card.svg

<svg width="24" height="24" viewBox="0 0 24 24" fill="none" xmlns="http://www.w3.org/2000/svg">
<path d="M18 4.25H6C3.58 4.25 2.25 5.58 2.25 8V16C2.25 18.42 3.58 19.75 6 19.75H18C20.42 19.75 21.75 18.42 21.75 16V8C21.75 5.58 20.42 4.25 18 4.25ZM20.25 16C20.25 17.58 19.58 18.25 18 18.25H6C4.42 18.25 3.75 17.58 3.75 16V8C3.75 6.42 4.42 5.75 6 5.75H18C19.58 5.75 20.25 6.42 20.25 8V16ZM9.92001 11H9.35001C9.35001 11 9.27001 11.03 9.26001 11.07L9.23999 11.2C9.23999 11.2 8.79999 10.72 8.01999 11.04C7.57999 11.22 7.35999 11.61 7.26999 11.89C7.26999 11.89 6.98001 12.73 7.64001 13.21C7.64001 13.21 8.24999 13.66 8.92999 13.19V13.26C8.92999 13.26 8.92999 13.33 8.95999 13.34C8.96999 13.35 8.97999 13.35 8.98999 13.35H9.56C9.56 13.35 9.63999 13.32 9.64999 13.28L10 11.1C10 11.1 9.99001 11.03 9.95001 11.02C9.94001 11.01 9.93001 11.01 9.92001 11.01V11ZM9.07999 12.2C9.05999 12.35 8.99 12.49 8.87 12.59C8.74 12.69 8.59 12.74 8.44 12.74C8.38 12.74 8.31999 12.73 8.26999 12.72C8.01999 12.64 7.88001 12.41 7.92001 12.15C7.94001 12 8.01001 11.86 8.14001 11.76C8.26001 11.66 8.41 11.61 8.56 11.61C8.63 11.61 8.68999 11.62 8.73999 11.63C8.97999 11.71 9.12001 11.94 9.07001 12.2H9.07999ZM18.1 11H17.52C17.52 11 17.44 11.03 17.44 11.07L17.42 11.2C17.42 11.2 16.98 10.72 16.2 11.04C15.76 11.22 15.54 11.61 15.45 11.89C15.45 11.89 15.16 12.73 15.82 13.21C15.82 13.21 16.43 13.66 17.11 13.19V13.26C17.11 13.26 17.11 13.33 17.14 13.34C17.15 13.35 17.16 13.35 17.17 13.35H17.74C17.74 13.35 17.82 13.32 17.83 13.28L18.18 11.1C18.18 11.1 18.17 11.05 18.16 11.04C18.15 11.02 18.13 11.01 18.1 11.01V11ZM17.26 12.2C17.24 12.35 17.17 12.49 17.05 12.59C16.92 12.69 16.77 12.74 16.62 12.74C16.56 12.74 16.5 12.73 16.45 12.72C16.2 12.64 16.06 12.41 16.1 12.15C16.12 12 16.19 11.86 16.31 11.76C16.44 11.67 16.59 11.61 16.74 11.61C16.8 11.61 16.86 11.62 16.91 11.63C17.16 11.71 17.3 11.94 17.26 12.2ZM6.23001 10H5.10001C5.10001 10 5.02001 10.03 5.01001 10.08L4.51001 13.25C4.51001 13.25 4.52 13.32 4.56 13.33C4.57 13.34 4.58 13.34 4.59 13.34H5.19C5.19 13.34 5.26999 13.31 5.26999 13.27L5.42001 12.34C5.42001 12.34 5.47001 12.26 5.51001 12.26H6.04999C6.34999 12.26 6.65 12.16 6.88 11.96C7.12 11.76 7.27001 11.49 7.32001 11.18C7.42001 10.56 6.93 10 6.22 10H6.23001ZM5.98999 11.56H5.54999L5.67999 10.72H6.12C6.48 10.72 6.59 10.93 6.56 11.16C6.53 11.39 6.33999 11.56 5.98999 11.56ZM12.83 11.11L11.09 13.97C11.09 13.97 11.03 14.02 11 14.02H10.33C10.33 14.02 10.31 14.02 10.3 14.02C10.27 14 10.26 13.96 10.28 13.93L10.84 13.03L10.22 11.11C10.22 11.11 10.22 11.09 10.22 11.08C10.22 11.05 10.25 11.02 10.29 11.02H10.91C10.91 11.02 10.98 11.05 10.99 11.08L11.34 12.22L12.02 11.07C12.02 11.07 12.08 11.02 12.12 11.02H12.79C12.79 11.02 12.84 11.03 12.85 11.05C12.86 11.07 12.86 11.1 12.85 11.12L12.83 11.11ZM14.42 10H13.29C13.29 10 13.21 10.03 13.2 10.08L12.7 13.25C12.7 13.25 12.71 13.32 12.75 13.34H13.37C13.37 13.34 13.45 13.31 13.46 13.27L13.61 12.34C13.61 12.34 13.66 12.26 13.7 12.26H14.24C14.54 12.26 14.84 12.16 15.07 11.96C15.31 11.76 15.46 11.49 15.51 11.18C15.61 10.56 15.12 10 14.41 10H14.42ZM14.18 11.56H13.74L13.87 10.72H14.31C14.67 10.72 14.78 10.93 14.75 11.16C14.72 11.39 14.53 11.56 14.18 11.56ZM19.45 10.01C19.45 10.01 19.52 10.06 19.52 10.1L19.01 13.28C19.01 13.28 18.97 13.35 18.92 13.35H18.32C18.32 13.35 18.32 13.35 18.31 13.35C18.27 13.35 18.24 13.3 18.24 13.26L18.75 10.08C18.75 10.08 18.79 10 18.84 10.01H19.44C19.44 10.01 19.44 10.01 19.45 10.01Z" fill="currentColor"/>
</svg>

<svg xmlns="http://www.w3.org/2000/svg" width="24" height="24" fill="none"><path fill="currentColor" d="M18 4.25H6C3.58 4.25 2.25 5.58 2.25 8v8c0 2.42 1.33 3.75 3.75 3.75h12c2.42 0 3.75-1.33 3.75-3.75V8c0-2.42-1.33-3.75-3.75-3.75ZM20.25 16c0 1.58-.67 2.25-2.25 2.25H6c-1.58 0-2.25-.67-2.25-2.25V8c0-1.58.67-2.25 2.25-2.25h12c1.58 0 2.25.67 2.25 2.25v8ZM9.92 11h-.57s-.08.03-.09.07l-.02.13s-.44-.48-1.22-.16c-.44.18-.66.57-.75.85 0 0-.29.84.37 1.32 0 0 .61.45 1.29-.02v.07s0 .07.03.08c.01.01.02.01.03.01h.57s.08-.03.09-.07L10 11.1s-.01-.07-.05-.08c-.01-.01-.02-.01-.03-.01V11Zm-.84 1.2c-.02.15-.09.29-.21.39a.703.703 0 0 1-.6.13.5.5 0 0 1-.35-.57c.02-.15.09-.29.22-.39.12-.1.27-.15.42-.15.07 0 .13.01.18.02.24.08.38.31.33.57h.01ZM18.1 11h-.58s-.08.03-.08.07l-.02.13s-.44-.48-1.22-.16c-.44.18-.66.57-.75.85 0 0-.29.84.37 1.32 0 0 .61.45 1.29-.02v.07s0 .07.03.08c.01.01.02.01.03.01h.57s.08-.03.09-.07l.35-2.18s-.01-.05-.02-.06c-.01-.02-.03-.03-.06-.03V11Zm-.84 1.2c-.02.15-.09.29-.21.39a.703.703 0 0 1-.6.13.5.5 0 0 1-.35-.57c.02-.15.09-.29.21-.39.13-.09.28-.15.43-.15.06 0 .12.01.17.02a.5.5 0 0 1 .35.57ZM6.23 10H5.1s-.08.03-.09.08l-.5 3.17s.01.07.05.08c.01.01.02.01.03.01h.6s.08-.03.08-.07l.15-.93s.05-.08.09-.08h.54c.3 0 .6-.1.83-.3.24-.2.39-.47.44-.78.1-.62-.39-1.18-1.1-1.18h.01Zm-.24 1.56h-.44l.13-.84h.44c.36 0 .47.21.44.44-.03.23-.22.4-.57.4Zm6.84-.45-1.74 2.86s-.06.05-.09.05h-.7a.065.065 0 0 1-.02-.09l.56-.9-.62-1.92v-.03c0-.03.03-.06.07-.06h.62s.07.03.08.06l.35 1.14.68-1.15s.06-.05.1-.05h.67s.05.01.06.03c.01.02.01.05 0 .07l-.02-.01ZM14.42 10h-1.13s-.08.03-.09.08l-.5 3.17s.01.07.05.09h.62s.08-.03.09-.07l.15-.93s.05-.08.09-.08h.54c.3 0 .6-.1.83-.3.24-.2.39-.47.44-.78.1-.62-.39-1.18-1.1-1.18h.01Zm-.24 1.56h-.44l.13-.84h.44c.36 0 .47.21.44.44-.03.23-.22.4-.57.4Zm5.27-1.55s.07.05.07.09l-.51 3.18s-.04.07-.09.07h-.61c-.04 0-.07-.05-.07-.09l.51-3.18s.04-.08.09-.07h.61Z"/></svg>
